Sources/FrostedUI/Resources/Icons.xcassets/burger16.imageset/burger-16.svg

<svg width="16" height="16" viewBox="0 0 16 16" fill="none" xmlns="http://www.w3.org/2000/svg" data-fui-icon="true">
  <path
    d="M12.9833 10.5273C13.9589 10.5275 14.7497 11.3183 14.7499 12.2939C14.7499 13.8618 13.4722 15.0156 11.9657 15.0156H4.03406C2.5276 15.0155 1.24988 13.8617 1.24988 12.2939C1.25002 11.3184 2.04095 10.5276 3.01648 10.5273H12.9833ZM3.01648 12.0273C2.86938 12.0276 2.75002 12.1468 2.74988 12.2939C2.74988 12.9727 3.29407 13.5155 4.03406 13.5156H11.9657C12.7058 13.5156 13.2499 12.9727 13.2499 12.2939C13.2497 12.1468 13.1305 12.0275 12.9833 12.0273H3.01648ZM10.452 8.12891C11.2327 6.95797 12.9536 6.95802 13.7343 8.12891C13.8179 8.25418 13.9749 8.33543 14.1405 8.33887C14.5544 8.34749 14.8831 8.68968 14.8749 9.10352C14.8664 9.51764 14.5234 9.84734 14.1093 9.83887C13.5173 9.82662 12.8757 9.54493 12.4862 8.96094C12.2993 8.68063 11.887 8.68059 11.7001 8.96094C10.9193 10.1316 9.19845 10.1318 8.41785 8.96094C8.2309 8.68063 7.81959 8.68059 7.63269 8.96094C6.85205 10.1317 5.13117 10.1316 4.35046 8.96094C4.16352 8.68063 3.75124 8.68059 3.56433 8.96094C3.15794 9.5702 2.47882 9.85152 1.85925 9.83887C1.44535 9.83016 1.11643 9.48721 1.12488 9.07324C1.13336 8.65919 1.47646 8.3305 1.8905 8.33887C2.06237 8.34227 2.22829 8.26057 2.31628 8.12891C3.09692 6.95797 4.81783 6.95802 5.59851 8.12891C5.78548 8.40899 6.19774 8.40907 6.38464 8.12891C7.16528 6.95797 8.88522 6.95802 9.66589 8.12891C9.85276 8.40912 10.265 8.40894 10.452 8.12891ZM10.9491 1C13.0482 1.00004 14.7499 2.70167 14.7499 4.80078C14.7499 5.27297 14.5639 5.73109 14.2792 6.07422C13.9942 6.41763 13.5447 6.71863 12.9833 6.71875H3.01648C2.45507 6.71857 2.00554 6.41763 1.72058 6.07422C1.43591 5.7311 1.24988 5.27293 1.24988 4.80078C1.24989 2.70172 2.95162 1.00012 5.05066 1H10.9491ZM5.05066 2.5C3.78005 2.50012 2.74989 3.53015 2.74988 4.80078C2.74988 4.89013 2.79167 5.01582 2.87488 5.11621C2.9133 5.16252 2.95064 5.19061 2.97742 5.20508C3.00079 5.21763 3.01312 5.21869 3.01648 5.21875H12.9833C12.9864 5.21872 12.9987 5.21778 13.0223 5.20508C13.0491 5.19064 13.0864 5.16254 13.1249 5.11621C13.2081 5.01581 13.2499 4.89016 13.2499 4.80078C13.2499 3.53009 12.2198 2.50004 10.9491 2.5H5.05066Z"
    fill="currentColor"
  />
</svg>

<svg xmlns="http://www.w3.org/2000/svg" width="16" height="16" fill="none" data-fui-icon="true" viewBox="0 0 16 16"><path fill="currentColor" d="M12.983 10.527c.976 0 1.767.791 1.767 1.767 0 1.568-1.278 2.722-2.784 2.722H4.034c-1.506 0-2.784-1.154-2.784-2.722 0-.976.791-1.766 1.766-1.767zm-9.967 1.5a.267.267 0 0 0-.266.267c0 .679.544 1.221 1.284 1.222h7.932c.74 0 1.284-.543 1.284-1.222a.267.267 0 0 0-.267-.267zm7.436-3.898a1.973 1.973 0 0 1 3.282 0c.084.125.24.206.406.21a.75.75 0 1 1-.03 1.5 2 2 0 0 1-1.624-.878.473.473 0 0 0-.786 0 1.973 1.973 0 0 1-3.282 0 .472.472 0 0 0-.785 0 1.973 1.973 0 0 1-3.283 0 .473.473 0 0 0-.786 0c-.406.61-1.085.89-1.705.878a.75.75 0 0 1 .032-1.5.5.5 0 0 0 .425-.21 1.973 1.973 0 0 1 3.283 0c.186.28.599.28.786 0 .78-1.171 2.5-1.171 3.28 0 .188.28.6.28.787 0M10.949 1a3.8 3.8 0 0 1 3.8 3.8c0 .473-.185.931-.47 1.274-.285.344-.734.645-1.296.645H3.016c-.56 0-1.01-.301-1.295-.645a2.03 2.03 0 0 1-.471-1.273A3.8 3.8 0 0 1 5.05 1zM5.051 2.5A2.3 2.3 0 0 0 2.75 4.8c0 .09.042.216.125.316a.4.4 0 0 0 .102.09.1.1 0 0 0 .04.013h9.966a.1.1 0 0 0 .04-.014.4.4 0 0 0 .102-.089.53.53 0 0 0 .125-.315 2.3 2.3 0 0 0-2.3-2.301z"/></svg>
